Sources/FrostedUI/Resources/Icons.xcassets/tag20.imageset/tag-20.svg

<svg width="20" height="20" viewBox="0 0 20 20" fill="none" xmlns="http://www.w3.org/2000/svg" data-fui-icon="true">
  <path
    d="M16.9805 1C18.0957 1.00025 18.9997 1.90429 19 3.01953V8.97363C19 9.50937 18.787 10.0235 18.4082 10.4023L10.7812 18.0293C10.1596 18.6508 9.31657 19 8.4375 19C7.55843 19 6.71542 18.6508 6.09375 18.0293L1.9707 13.9062C1.3492 13.2846 1 12.4416 1 11.5625C1 10.6834 1.3492 9.84042 1.9707 9.21875L9.59766 1.5918C9.97648 1.21297 10.4906 1 11.0264 1H16.9805ZM11.0264 2.5C10.8885 2.5 10.7557 2.55482 10.6582 2.65234L3.03125 10.2793C2.69106 10.6197 2.5 11.0813 2.5 11.5625C2.5 12.0437 2.69106 12.5053 3.03125 12.8457L7.1543 16.9688C7.49466 17.3089 7.95626 17.5 8.4375 17.5C8.91874 17.5 9.38034 17.3089 9.7207 16.9688L17.3477 9.3418C17.4452 9.24428 17.5 9.11155 17.5 8.97363V3.01953C17.4997 2.73272 17.2673 2.50025 16.9805 2.5H11.0264ZM14 4C15.1046 4 16 4.89543 16 6C16 7.10457 15.1046 8 14 8C12.8954 8 12 7.10457 12 6C12 4.89543 12.8954 4 14 4ZM14 5.5C13.7239 5.5 13.5 5.72386 13.5 6C13.5 6.27614 13.7239 6.5 14 6.5C14.2761 6.5 14.5 6.27614 14.5 6C14.5 5.72386 14.2761 5.5 14 5.5Z"
    fill="currentColor"
  />
</svg>

<svg xmlns="http://www.w3.org/2000/svg" width="20" height="20" fill="none" data-fui-icon="true" viewBox="0 0 20 20"><path fill="currentColor" d="M16.98 1A2.02 2.02 0 0 1 19 3.02v5.954a2.02 2.02 0 0 1-.592 1.428l-7.627 7.627a3.315 3.315 0 0 1-4.687 0L1.97 13.906a3.315 3.315 0 0 1 0-4.687l7.627-7.627A2.02 2.02 0 0 1 11.026 1zm-5.954 1.5a.52.52 0 0 0-.368.152L3.031 10.28a1.815 1.815 0 0 0 0 2.567l4.123 4.123a1.816 1.816 0 0 0 2.567 0l7.627-7.627a.52.52 0 0 0 .152-.368V3.02a.52.52 0 0 0-.52-.52zM14 4a2 2 0 1 1 0 4 2 2 0 0 1 0-4m0 1.5a.5.5 0 1 0 0 1 .5.5 0 0 0 0-1"/></svg>
